symbols/web/format_list_bulleted/materialsymbolsoutlined/format_list_bulleted_wght700gradN25_48px.svg

<svg xmlns="http://www.w3.org/2000/svg" height="48" width="48"><path d="M7.8 39.65q-1.35 0-2.325-.925Q4.5 37.8 4.5 36.4q0-1.3.975-2.3.975-1 2.325-1t2.3 1q.95 1 .95 2.35t-.95 2.275q-.95.925-2.3.925Zm8.35-1V34.1H43.6v4.55ZM7.8 27.25q-1.35 0-2.325-.95-.975-.95-.975-2.35 0-1.3.975-2.275Q6.45 20.7 7.8 20.7t2.3.975q.95.975.95 2.275 0 1.35-.95 2.325-.95.975-2.3.975Zm8.35-1V21.7H43.6v4.55Zm-8.4-11.4q-1.35 0-2.3-.95-.95-.95-.95-2.35 0-1.3.95-2.275.95-.975 2.3-.975 1.35 0 2.325.975.975.975.975 2.325t-.95 2.3q-.95.95-2.35.95Zm8.4-1V9.3H43.6v4.55Z"/></svg>

<svg xmlns="http://www.w3.org/2000/svg" height="48" width="48"><path d="M7.8 27.25Q6.45 27.25 5.475 26.3Q4.5 25.35 4.5 23.95Q4.5 22.65 5.475 21.675Q6.45 20.7 7.8 20.7Q9.15 20.7 10.1 21.675Q11.05 22.65 11.05 23.95Q11.05 25.3 10.1 26.275Q9.15 27.25 7.8 27.25ZM7.75 14.85Q6.4 14.85 5.45 13.9Q4.5 12.95 4.5 11.55Q4.5 10.25 5.45 9.275Q6.4 8.3 7.75 8.3Q9.1 8.3 10.075 9.275Q11.05 10.25 11.05 11.6Q11.05 12.95 10.1 13.9Q9.15 14.85 7.75 14.85ZM7.8 39.65Q6.45 39.65 5.475 38.725Q4.5 37.8 4.5 36.4Q4.5 35.1 5.475 34.1Q6.45 33.1 7.8 33.1Q9.15 33.1 10.1 34.1Q11.05 35.1 11.05 36.45Q11.05 37.8 10.1 38.725Q9.15 39.65 7.8 39.65ZM16.15 38.65V34.1H43.6V38.65ZM16.15 26.25V21.7H43.6V26.25ZM16.15 13.85V9.3H43.6V13.85Z"/></svg>
